~now = 0;
~cnt = 0;
d = OSCdef(\htracker, {
	|msg, time, addr, recvPort|
	var fs;
	fs = (time - ~now).reciprocal;
	~now = time;
	~cnt = ~cnt+1;
	msg.postln;
	postf("\t % \t %, fs: %\n", time, ~cnt, fs);
}, '/imu'
);

// d.free

// n = NetAddr("localhost", 57120)
// n.sendMsg('/imu', 14)